src/pos-icons/read.svg

<svg height="24" viewBox="0 0 24 24" width="24" xmlns="http://www.w3.org/2000/svg"><path d="m21.59 11.59 1.41 1.41-9.5 9.5-5.08-5.09 1.41-1.41 3.67 3.68zm-17.59 4.41v-13h2 3a4 4 0 0 1 4 4c0 1.54-.87 2.88-2.15 3.55l3.15 5.45h-2l-2.89-5h-3.11v5zm2-7h3a2 2 0 0 0 2-2 2 2 0 0 0 -2-2h-3z"/></svg>

<?xml version="1.0" encoding="UTF-8"?><!DOCTYPE svg PUBLIC "-//W3C//DTD SVG 1.1//EN" "http://www.w3.org/Graphics/SVG/1.1/DTD/svg11.dtd"><svg xmlns="http://www.w3.org/2000/svg" xmlns:xlink="http://www.w3.org/1999/xlink" version="1.1" id="mdi-read" width="24" height="24" viewBox="0 0 24 24"><path d="M21.59,11.59L23,13L13.5,22.5L8.42,17.41L9.83,16L13.5,19.68L21.59,11.59M4,16V3H6L9,3A4,4 0 0,1 13,7C13,8.54 12.13,9.88 10.85,10.55L14,16H12L9.11,11H6V16H4M6,9H9A2,2 0 0,0 11,7A2,2 0 0,0 9,5H6V9Z" /></svg>
